X:8
T:Flew the Coop
C:Corwin Zekley
L:1/8
M:9/8
K:G
"G" !turn!G3 GBd"C" cBA |"G" !turn!G3 GFE D3 |"C" E2 C E2 C EFG |"G" !turn!B3"D" cAF"G" G3 |$ %4
"G" !turn!G3 GBd"C" cBA |"G" !turn!G3 GFE D3 |"C" E2 C E2 C EFG |"G" !turn!B3"D" cAF"G" GBd |$ %8
"C" e3 e2 d efg |"G" !turn!d3 dBG"Bm" F2 G |"C" EG,B, CEG ABc |"G" BDG dcB"D" Agf |$ %12
"C" e3 e2 d efg |"G" b2 d- dgb"Bm" agf |"C" efg gdc"G" BAG |"D" cAF DEF"G" G3 |] %16

